X:7324
T:The Shamrock Reel
O:england
R:reel
B:Joyce, P. W.; "Old Irish Folk Music and Songs"
L:1/8
M:C
K:C
dcAB cBcA|DEDA c4|dcAB cBcA|GEcE d2 d2:|
Dddd dfed|cde^f gefd|Addd defd|edcB A2 A2|
Ad ~d2 Ad ~d2|cde^f g2 fg|a^fge =fdec|Addc d4||
